X:5
T:Alma Redemptoris Mater
T:Tenor II part
C:Tom\'as Luis de Victoria (1548-1611)
O:Florigelium sacrarum cantionum, Petri Phalesij, 1609
L:1/8
M:4/2
%%measurenb 0
%%squarebreve
%%scale 0.75
%%newpage 1
%%continueall true
%%footer "$T (Tenor II)	Page $P	Gumbleton Music, 2011\n"
K:F clef=alto
z8  F,4 A,4 | B,4 C4 D4 C4 |z2 C4 D4 E4 F2 |
w:Al ---- ma Re-dem- pto-ris
%7
D3 C D2 C4 =B,2 C2 G,2 |A,4 B,2 D2 C4 F,2 F2-|F2 F2 F4 F2 F4 E2 |
w:Ma ----ter, Re-dem-pto-ris Ma-ter, Re - dem-pto-ris Ma  -
%13
F8  z8 |z16 |z2 C4 D3 D E4 F2-|
w:ter, quae per- vi-a coe-
%z8 | F,4 C4 | D4 E4 | F4 E4 | z2 E4 F2-|F2 G4 A2 |
%D2 C D2 C2- | C2 =B2 C2 G2 | A4 B2 D2 | C4 F,2 D2 | C4 F,2 F2-|F2 F2 F4 | F2 F4 E2 |
%F8 | Z3 | z2 C4 D2-|D D E4 F2-|
FEDCDE F4 E2 F2 C2 | D2 E2 F3 E  D2 C2 z4 | z2 E2 F2 G2  AGFE F2 E2 |
w:-------- li por-ta ma ---nes, por-ta ma ------
D2 CB, A,2 F,2  z8| z2 C2 D2 E2  F3 E D2 C2 | B,3 A,G,F, F4 E2 F4 |
w:---- nes, por-ta ma ---------- nes.
z16| z4 G8 ^F4 | G4 E4  F4 z4 |
w:Et stel-la ma-ris 
C8  =B,4 C4 | A,4 G,8 z2 F,2 | C4 B,2 A,2  G,4 F,4 |
w:et stel-la ma-ris suc-cur-re ca-den-ti,
%43
z4 z2 C2  D4 D2 C2 |B,2 C3 B,A,G,A,F, C4 =B,2 |C4 A,3 A, =B,4 z4 |
w:suc-cur-re ca-den -------- ti. Sur-ge-re,
z4 z2 C4 F2 F4 | z8 z4 z2 C2-|C2 F3 E D3 C B,4 A,2 |
w:sur- ge-re qui_ cu ---- rat,
C6 C2  C8|| [Q:"Secunda pars"]z16 | z4 C6 B,2 A,2 G,2 |
w:po-pu-lo: Tu quae ge-nu-
A,B,CA, B,A,A,G,/F,/  G,4 A,4 | z4 C4 z2 F2 DEFD |EC F4 E2  F8 |
w:i --------- sti, tu quae ge ------ nu-i-
%67
C4 z2 F2  F4 D4 | z2 C2 C4  A,2 F,2 F3 E | D2 C2 z2 F,2  F3 E F2 G2-|
w:sti, na-tu-ra, na-tu-ra mi-ran -- te, mi-ran ---
%73
GF F4 E2  F4 D4 | z8  z4 C4 | D2 F4 E2 F2 A2 G3 F |
w:-----te, tu-um san-ctum Ge-ni-to -
%79
ED C3 B, A,G,  F,2 G,2 A,G,F,E, | F,4 G,4  C8 |A,8  D6 C2 |
w:------------- rem, vir-go pri -
%85
B,4 C2 C2 D2 E2 F3 E |D2 D2 C4  z4 z2 A,2 | B,2 C2 DCB,A, G,2 F,2 B,4 |
w:- us ac po - ste --ri-us, ac po - ste ----ri-us,
%91
z4 z2 C4 C2 D4 | =B,2 B,2 C3 B, A,8 | G,2 G4 G2 A4 F2 F2 |
w:Ga- bri-e-lis ab o -- re, Ga-bri-e-lis ab
%97
GF F4 E2  F4 z2 A,2-|A,2 G,F, G,2 A,2 B,4 z2 F2-|F2 ED E2 F3 EDCB,A, G,2 |
w:o ---re. Su ----- mens, su -----------
%103
F,8  z2 F4 ED | E2 D2 F8 F4 | z4 B,6 F,2 C4-|C4 C4 \
w:mens il --- lud A- ve, A --- ve,
%110
z8|z8 z4 z2 A,2 |B,4 C4 F,2 F2 E2 D2-|D2 ^C2 D4  z2 D2 =C2 G,2|
w:pec-ca-to-rum mi-se-re -- re, mi-se -
%117
A,3 B,CD C4 =B,2 C4 | A,2 C3 B,A,G, A,4 B,2 C2 |D4 C12|]
w:re ------ re, mi ---- se - re-re.

